X:117
T:Pleyel’s Rondo. CJF.117
R:Rondo
S:C.J.Fox MS, 1829/33, Beverley,E.Yorks.
N:I Have added the final repeat mark. – PJH.
B:Kidson Coll.Mitchell Lib.M1805
O:England
A:East Yorkshire
Z:vmp.P J Headford 2000 & 2008
M:2/4
L:1/16
Q:1/4=120
K:G
GABc dBce|.d2.B2G4|FGAB cABG|.A2.F2D4|\
GABc dBce|d2g2 b4|abag fgaf|g2b2 g4h:|!
|:gfgd B2B2|d^cdB G2G2|FGAB cABG|B2^cd D4|\
gfgd B2B2|d^cdB G2G2|^cdef gefd|^cd” DC”ec d4:|

